!! 00000] TT[WS
!!!OTL: Guanggurhan huijia hao nanhuo
!!!ARE: Asia, China, Shanxi Hequ
!! Ethnic Group: Han
!! WII, 6
!!!SCT: J0408
!!!YEM: Copyright 1995, estate of Helmut Schaffrath.
**kern
*ICvox
*Ivox
*M2/4
*k[b-e-]
*B-:
{8.ddd
16ccc
8ddd
8fff
=1
8gg
4bb-
16gg
16ff
=2
8dd
8cc
8dd
8fff
=3
2cc}
=4
{8.ddd
16ccc
8ddd
8fff
=5
8gg
4bb-
16gg
16ff
=6
8dd
8ff
8gg
8ddd
=7
2ff}
==
!!!AGN: Shange, Shanqu. Qingge, Aisu
!!!ONB: ESAC (Essen Associative Code) Database: CHINA
!!!AMT: simple duple
!!!AIN: vox
!!!EED: Helmut Schaffrath
!!!EEV: 1.0
*-
